assets/1. P-Z/Skull/Color/Skull-color.svg

<svg width="100%" height="100%" viewBox="0 0 32 32" fill="none" xmlns="http://www.w3.org/2000/svg">
<g filter="url(#filter0_i_31_1452)">
<path d="M16 2C8.27 2 2 8.26776 2 15.995C2 21.1732 4.82 22.5627 9 22.9125V28.0007C9 29.1003 9.9 30 11 30C12.1 30 13 29.1003 13 28.0007V25.4918C13 25.2156 13.2239 24.9918 13.5 24.9918V24.9918C13.7761 24.9918 14 25.2156 14 25.4918V28.0007C14 29.1003 14.9 30 16 30C17.1 30 18 29.1003 18 28.0007V25.4918C18 25.2156 18.2239 24.9918 18.5 24.9918V24.9918C18.7761 24.9918 19 25.2156 19 25.4918V28.0007C19 29.1003 19.9 30 21 30C22.1 30 23 29.1003 23 28.0007V22.9125C27.18 22.5527 30 21.1732 30 15.995C30 8.26776 23.73 2 16 2Z" fill="url(#paint0_radial_31_1452)"/>
</g>
<path d="M16 2C8.27 2 2 8.26776 2 15.995C2 21.1732 4.82 22.5627 9 22.9125V28.0007C9 29.1003 9.9 30 11 30C12.1 30 13 29.1003 13 28.0007V25.4918C13 25.2156 13.2239 24.9918 13.5 24.9918V24.9918C13.7761 24.9918 14 25.2156 14 25.4918V28.0007C14 29.1003 14.9 30 16 30C17.1 30 18 29.1003 18 28.0007V25.4918C18 25.2156 18.2239 24.9918 18.5 24.9918V24.9918C18.7761 24.9918 19 25.2156 19 25.4918V28.0007C19 29.1003 19.9 30 21 30C22.1 30 23 29.1003 23 28.0007V22.9125C27.18 22.5527 30 21.1732 30 15.995C30 8.26776 23.73 2 16 2Z" fill="url(#paint1_linear_31_1452)"/>
<path d="M14 16.7617C14 19.3928 11.9866 20 9.5 20C7.01342 20 5 19.3928 5 16.7617C5 14.1305 7.01342 12 9.5 12C11.9866 12 14 14.1305 14 16.7617Z" fill="url(#paint2_radial_31_1452)"/>
<path d="M27 16.7617C27 19.3928 24.9866 20 22.5 20C20.0134 20 18 19.3928 18 16.7617C18 14.1305 20.0134 12 22.5 12C24.9866 12 27 14.1305 27 16.7617Z" fill="url(#paint3_radial_31_1452)"/>
<path d="M16.98 21.97H15.01C14.51 21.97 14.16 21.48 14.32 21.01L14.68 19.93C14.87 19.38 15.4 19 15.99 19C16.58 19 17.1 19.37 17.29 19.93L17.66 21.01C17.83 21.48 17.48 21.97 16.98 21.97Z" fill="url(#paint4_radial_31_1452)"/>
<g opacity="0.32" filter="url(#filter1_f_31_1452)">
<rect x="11" y="25" width="1.5" height="4" rx="0.75" fill="white"/>
</g>
<g opacity="0.38" filter="url(#filter2_f_31_1452)">
<rect x="16" y="24" width="1.5" height="5" rx="0.75" fill="white"/>
</g>
<g opacity="0.8" filter="url(#filter3_f_31_1452)">
<path d="M19.75 23H22.25V28.25C22.25 28.6642 21.9142 29 21.5 29V29C21.0858 29 20.75 28.6642 20.75 28.25V25.5458C20.75 24.8639 20.5481 24.1972 20.1699 23.6298L19.75 23Z" fill="white"/>
</g>
<path fill-rule="evenodd" clip-rule="evenodd" d="M14.4713 29.2862C14.7948 28.736 15 27.9159 15 27C15 25.3431 14.3284 24 13.5 24C12.6716 24 12 25.3431 12 27C12 27.9159 12.2052 28.736 12.5287 29.2862C12.8225 28.938 13 28.4891 13 28.0007V25.4918C13 25.2156 13.2239 24.9918 13.5 24.9918C13.7761 24.9918 14 25.2156 14 25.4918V28.0007C14 28.4891 14.1775 28.938 14.4713 29.2862Z" fill="url(#paint5_radial_31_1452)"/>
<path fill-rule="evenodd" clip-rule="evenodd" d="M19.4713 29.2862C19.7948 28.736 20 27.9159 20 27C20 25.3431 19.3284 24 18.5 24C17.6716 24 17 25.3431 17 27C17 27.9159 17.2052 28.7359 17.5287 29.2862C17.8225 28.938 18 28.4891 18 28.0007V25.4918C18 25.2156 18.2238 24.9918 18.5 24.9918C18.7761 24.9918 19 25.2156 19 25.4918V28.0007C19 28.4891 19.1775 28.938 19.4713 29.2862Z" fill="url(#paint6_radial_31_1452)"/>
<defs>
<filter id="filter0_i_31_1452" x="2" y="1" width="29" height="29" filterUnits="userSpaceOnUse" color-interpolation-filters="sRGB">
<feFlood flood-opacity="0" result="BackgroundImageFix"/>
<feBlend mode="normal" in="SourceGraphic" in2="BackgroundImageFix" result="shape"/>
<feColorMatrix in="SourceAlpha" type="matrix" values="0 0 0 0 0 0 0 0 0 0 0 0 0 0 0 0 0 0 127 0" result="hardAlpha"/>
<feOffset dx="1" dy="-1"/>
<feGaussianBlur stdDeviation="1.5"/>
<feComposite in2="hardAlpha" operator="arithmetic" k2="-1" k3="1"/>
<feColorMatrix type="matrix" values="0 0 0 0 0.801456 0 0 0 0 0.658291 0 0 0 0 0.911898 0 0 0 1 0"/>
<feBlend mode="normal" in2="shape" result="effect1_innerShadow_31_1452"/>
</filter>
<filter id="filter1_f_31_1452" x="10" y="24" width="3.5" height="6" filterUnits="userSpaceOnUse" color-interpolation-filters="sRGB">
<feFlood flood-opacity="0" result="BackgroundImageFix"/>
<feBlend mode="normal" in="SourceGraphic" in2="BackgroundImageFix" result="shape"/>
<feGaussianBlur stdDeviation="0.5" result="effect1_foregroundBlur_31_1452"/>
</filter>
<filter id="filter2_f_31_1452" x="15" y="23" width="3.5" height="7" filterUnits="userSpaceOnUse" color-interpolation-filters="sRGB">
<feFlood flood-opacity="0" result="BackgroundImageFix"/>
<feBlend mode="normal" in="SourceGraphic" in2="BackgroundImageFix" result="shape"/>
<feGaussianBlur stdDeviation="0.5" result="effect1_foregroundBlur_31_1452"/>
</filter>
<filter id="filter3_f_31_1452" x="17.75" y="21" width="6.5" height="10" filterUnits="userSpaceOnUse" color-interpolation-filters="sRGB">
<feFlood flood-opacity="0" result="BackgroundImageFix"/>
<feBlend mode="normal" in="SourceGraphic" in2="BackgroundImageFix" result="shape"/>
<feGaussianBlur stdDeviation="1" result="effect1_foregroundBlur_31_1452"/>
</filter>
<radialGradient id="paint0_radial_31_1452" cx="0" cy="0" r="1" gradientUnits="userSpaceOnUse" gradientTransform="translate(20.5 8.49768) rotate(125.547) scale(25.8009 25.8039)">
<stop offset="0.212753" stop-color="#F2F0F4"/>
<stop offset="0.742622" stop-color="#D1BBE0"/>
</radialGradient>
<linearGradient id="paint1_linear_31_1452" x1="8.5" y1="15" x2="-1" y2="10" gradientUnits="userSpaceOnUse">
<stop stop-color="#E5C9C5" stop-opacity="0"/>
<stop offset="1" stop-color="#FFD099"/>
</linearGradient>
<radialGradient id="paint2_radial_31_1452" cx="0" cy="0" r="1" gradientUnits="userSpaceOnUse" gradientTransform="translate(8.13086 16.9959) rotate(-49.9682) scale(6.26052 7.3918)">
<stop offset="0.444517" stop-color="#3D2C36"/>
<stop offset="1" stop-color="#1A1016"/>
</radialGradient>
<radialGradient id="paint3_radial_31_1452" cx="0" cy="0" r="1" gradientUnits="userSpaceOnUse" gradientTransform="translate(21.1309 16.9959) rotate(-49.9682) scale(6.26052 7.3918)">
<stop offset="0.444517" stop-color="#3D2C36"/>
<stop offset="1" stop-color="#1A1016"/>
</radialGradient>
<radialGradient id="paint4_radial_31_1452" cx="0" cy="0" r="1" gradientUnits="userSpaceOnUse" gradientTransform="translate(15.4715 20.8547) rotate(-49.2879) scale(2.3478 2.7828)">
<stop offset="0.444517" stop-color="#3D2C36"/>
<stop offset="1" stop-color="#1A1016"/>
</radialGradient>
<radialGradient id="paint5_radial_31_1452" cx="0" cy="0" r="1" gradientUnits="userSpaceOnUse" gradientTransform="translate(13.5 26.5) rotate(90) scale(2.5 1.12061)">
<stop stop-color="#7A6E85"/>
<stop offset="1" stop-color="#B29EC2" stop-opacity="0"/>
</radialGradient>
<radialGradient id="paint6_radial_31_1452" cx="0" cy="0" r="1" gradientUnits="userSpaceOnUse" gradientTransform="translate(18.5 26.5) rotate(90) scale(2.5 1.12061)">
<stop stop-color="#7A6E85"/>
<stop offset="1" stop-color="#B29EC2" stop-opacity="0"/>
</radialGradient>
</defs>
</svg>

<svg width="100%" height="100%" viewBox="0 0 32 32" xmlns="http://www.w3.org/2000/svg"><g filter="url(#a)"><path fill="url(#b)" d="M16 2C8.27 2 2 8.268 2 15.995c0 5.178 2.82 6.568 7 6.918V28C9 29.1 9.9 30 11 30s2-.9 2-2v-2.508a.5.5 0 1 1 1 0V28c0 1.1.9 1.999 2 1.999s2-.9 2-2v-2.508a.5.5 0 1 1 1 0V28c0 1.1.9 1.999 2 1.999s2-.9 2-2v-5.087c4.18-.36 7-1.74 7-6.918C30 8.268 23.73 2 16 2"/></g><path fill="url(#c)" d="M16 2C8.27 2 2 8.268 2 15.995c0 5.178 2.82 6.568 7 6.918V28C9 29.1 9.9 30 11 30s2-.9 2-2v-2.508a.5.5 0 1 1 1 0V28c0 1.1.9 1.999 2 1.999s2-.9 2-2v-2.508a.5.5 0 1 1 1 0V28c0 1.1.9 1.999 2 1.999s2-.9 2-2v-5.087c4.18-.36 7-1.74 7-6.918C30 8.268 23.73 2 16 2"/><path fill="url(#d)" d="M14 16.762C14 19.392 11.987 20 9.5 20S5 19.393 5 16.762 7.013 12 9.5 12s4.5 2.13 4.5 4.762"/><path fill="url(#e)" d="M27 16.762C27 19.392 24.987 20 22.5 20s-4.5-.607-4.5-3.238S20.013 12 22.5 12s4.5 2.13 4.5 4.762"/><path fill="url(#f)" d="M16.98 21.97h-1.97c-.5 0-.85-.49-.69-.96l.36-1.08c.19-.55.72-.93 1.31-.93s1.11.37 1.3.93l.37 1.08c.17.47-.18.96-.68.96"/><g filter="url(#g)" opacity=".32"><rect width="1.5" height="4" x="11" y="25" fill="#fff" rx=".75"/></g><g filter="url(#h)" opacity=".38"><rect width="1.5" height="5" x="16" y="24" fill="#fff" rx=".75"/></g><g filter="url(#i)" opacity=".8"><path fill="#fff" d="M19.75 23h2.5v5.25a.75.75 0 0 1-1.5 0v-2.704c0-.682-.202-1.349-.58-1.916z"/></g><path fill="url(#j)" fill-rule="evenodd" d="M14.471 29.286c.324-.55.529-1.37.529-2.286 0-1.657-.672-3-1.5-3S12 25.343 12 27c0 .916.205 1.736.529 2.286.293-.348.471-.797.471-1.285v-2.51a.5.5 0 1 1 1 0v2.51c0 .488.178.937.471 1.285" clip-rule="evenodd"/><path fill="url(#k)" fill-rule="evenodd" d="M19.471 29.286c.324-.55.529-1.37.529-2.286 0-1.657-.672-3-1.5-3S17 25.343 17 27c0 .916.205 1.736.529 2.286.294-.348.471-.797.471-1.285v-2.51a.5.5 0 1 1 1 0v2.51c0 .488.177.937.471 1.285" clip-rule="evenodd"/><defs><radialGradient id="b" cx="0" cy="0" r="1" gradientTransform="matrix(-14.99988 20.99262 -20.99506 -15.00163 20.5 8.498)" gradientUnits="userSpaceOnUse"><stop offset=".213" stop-color="#F2F0F4"/><stop offset=".743" stop-color="#D1BBE0"/></radialGradient><radialGradient id="d" cx="0" cy="0" r="1" gradientTransform="rotate(-49.968 22.303 -.227)scale(6.26052 7.3918)" gradientUnits="userSpaceOnUse"><stop offset=".445" stop-color="#3D2C36"/><stop offset="1" stop-color="#1A1016"/></radialGradient><radialGradient id="e" cx="0" cy="0" r="1" gradientTransform="matrix(4.02685 -4.7936 5.6598 4.7545 21.13 16.996)" gradientUnits="userSpaceOnUse"><stop offset=".445" stop-color="#3D2C36"/><stop offset="1" stop-color="#1A1016"/></radialGradient><radialGradient id="f" cx="0" cy="0" r="1" gradientTransform="matrix(1.53137 -1.77962 2.10935 1.8151 15.472 20.855)" gradientUnits="userSpaceOnUse"><stop offset=".445" stop-color="#3D2C36"/><stop offset="1" stop-color="#1A1016"/></radialGradient><radialGradient id="j" cx="0" cy="0" r="1" gradientTransform="matrix(0 2.5 -1.12061 0 13.5 26.5)" gradientUnits="userSpaceOnUse"><stop stop-color="#7A6E85"/><stop offset="1" stop-color="#B29EC2" stop-opacity="0"/></radialGradient><radialGradient id="k" cx="0" cy="0" r="1" gradientTransform="matrix(0 2.5 -1.12061 0 18.5 26.5)" gradientUnits="userSpaceOnUse"><stop stop-color="#7A6E85"/><stop offset="1" stop-color="#B29EC2" stop-opacity="0"/></radialGradient><filter id="a" width="29" height="29" x="2" y="1" color-interpolation-filters="sRGB" filterUnits="userSpaceOnUse"><feFlood flood-opacity="0" result="BackgroundImageFix"/><feBlend in="SourceGraphic" in2="BackgroundImageFix" result="shape"/><feColorMatrix in="SourceAlpha" result="hardAlpha" values="0 0 0 0 0 0 0 0 0 0 0 0 0 0 0 0 0 0 127 0"/><feOffset dx="1" dy="-1"/><feGaussianBlur stdDeviation="1.5"/><feComposite in2="hardAlpha" k2="-1" k3="1" operator="arithmetic"/><feColorMatrix values="0 0 0 0 0.801456 0 0 0 0 0.658291 0 0 0 0 0.911898 0 0 0 1 0"/><feBlend in2="shape" result="effect1_innerShadow_31_1452"/></filter><filter id="g" width="3.5" height="6" x="10" y="24" color-interpolation-filters="sRGB" filterUnits="userSpaceOnUse"><feFlood flood-opacity="0" result="BackgroundImageFix"/><feBlend in="SourceGraphic" in2="BackgroundImageFix" result="shape"/><feGaussianBlur result="effect1_foregroundBlur_31_1452" stdDeviation=".5"/></filter><filter id="h" width="3.5" height="7" x="15" y="23" color-interpolation-filters="sRGB" filterUnits="userSpaceOnUse"><feFlood flood-opacity="0" result="BackgroundImageFix"/><feBlend in="SourceGraphic" in2="BackgroundImageFix" result="shape"/><feGaussianBlur result="effect1_foregroundBlur_31_1452" stdDeviation=".5"/></filter><filter id="i" width="6.5" height="10" x="17.75" y="21" color-interpolation-filters="sRGB" filterUnits="userSpaceOnUse"><feFlood flood-opacity="0" result="BackgroundImageFix"/><feBlend in="SourceGraphic" in2="BackgroundImageFix" result="shape"/><feGaussianBlur result="effect1_foregroundBlur_31_1452" stdDeviation="1"/></filter><linearGradient id="c" x1="8.5" x2="-1" y1="15" y2="10" gradientUnits="userSpaceOnUse"><stop stop-color="#E5C9C5" stop-opacity="0"/><stop offset="1" stop-color="#FFD099"/></linearGradient></defs></svg>
